!!!OTL: 1124. Der Tummler.
!!!ODT: 1570 (um)
!!!ARE: Europa, Mitteleuropa, Deutschland
!!!SCT: E1124
!!!TXL: @@BAR
!!!YEM: Copyright 1995, estate of Helmut Schaffrath.
**kern	**text
*ICvox	*
*M4/4	*
*met(c)	*
*k[f#]	*
*G:	*
=1	=1
!LO:TX:a:t=Handſchriftlich um 1570. Gedr. 1571.	!
4r	.
{4dd	Friſch
4dd	auf,
4dd	gut
=2	=2
4dd	Gſell,
4dd	laß
4ee	rum-
4ee	-mer
=3	=3
2cc}	gan!
{4dd	Tum-
4ee	-mel
=4	=4
4ffn	dich,
4gg	guts
2ee	Wein-
=5	=5
2dd	-lein!
4r}	.
{4dd	das
=6	=6
4gg	Gläs-
4gg	-lein
4ee	ſoll
4ee	nicht
=7	=7
4ffn	ſtil-
4ffn	-le
2dd}	ſtan.
=8	=8
{4cc	Tum-
4a	-mel
2g}	dich!
=9	=9
{4b-	tum-
4cc	-mel
2dd	dich,
=10	=10
4a	tum-
4b-	-mel
2cc}	dich,
=11	=11
{4g	tum-
4a	-mel
4b-	dich,
4cc	guts
=12	=12
2a	Wein-
2g}	-lein!
=13	=13
{4b-	tum-
4cc	-mel
2dd	dich,
=14	=14
4a	tum-
4b-	-mel
2cc}	dich,
=15	=15
{4g	tum-
4a	-mel
4b-	dich,
4cc	guts
=16	=16
2a	Wein-
2g}	-lein!
=17	=17
{4g	Tum-
4a	-mel
4b-	dich,
4cc	guts
=18	=18
2a	Wein-
2g}	-lein.
==	==
!!!AGN: Trink -, Zech - Lied
!!!ONB: ESAC (Essen Associative Code) Database: ERK3
!!!AMT: simple quadruple
!!!AIN: vox
!!!EED: Helmut Schaffrath
!!!EEV: 1.0
!!!GTL: Trink- und Zechlieder.
!!!URL-scan: https://rosdok.uni-rostock.de/mcrviewer/recordIdentifier/rosdok_ppn745177999/iview2/phys_0065.iview2?x=188.1684953369795&y=841.3415560085559&scale=0.701185927818147&rotation=0&layout=singlePageLayout
!!!ENC: Anna Maria Matuszewska
!!!EEV: 2024/12/23
*-	*-
